X:24
T:Brosnan's
R:Reel
O:Ireland
C:John Brosnan
D:John Brosnan "The Cook in the Kitchen"
S:My arrangement from various sources
Z:Transcription, arrangement, chords:Mike Long
M:C|
L:1/8
K:D
A|\
"Bm"FBBA Bcde|fdec dcBA|"A"FA~A2  FAEA|"F#m"FA~A2  "A"eAcA|\
"Bm"FBBA Bcde|
~f2ec dcBA|"A"~f2ec dcBA|"F#m"FBBA "Bm"~B3 :|\
|:e|\
"Bm"d2Bc defg|f2bf afeg|"(G/F#m)"fB~B2 fB~B2|
"A"e2ce Aece|\
"Bm"fBBA Bcde|f2bf afeg|"A"fdec dcBA|"F#m"FBBA "Bm"~B2B:|
